X: 33098
T: Prince Edward Island Wedding
R: reel
M: 4/4
K: Amajor
|:A2|A,CEC ACEC|A,CEC DC B,2|C2 EC ACEA|1 FEFG A2:|2 FEFG A2 A2||
|:efed cAAc|BABc dcBA|efed cAAG|FECE A2 A2:|
e2 ce acec|Acac dc B2|Acec aceg|fefg abag|
fbed cAAc|BABc dfed|cA A/A/A AcBA|BFFE FGAF||

